Sweet-Rainbow/icons/file.svg

<svg width="48" height="48" xmlns="http://www.w3.org/2000/svg">
 <defs>
  <linearGradient y2="0.972393" x2="0.951472" y1="0.059783" x1="-0.008152" id="_lgradient_4">
   <stop stop-color="rgb(0,255,255)" offset="0%"/>
   <stop stop-color="rgb(165,83,168)" offset="98.26086956521739%"/>
  </linearGradient>
 </defs>
 <g>
  <title>background</title>
  <rect fill="none" id="canvas_background" height="402" width="582" y="-1" x="-1"/>
 </g>
 <g>
  <title>Layer 1</title>
  <path id="svg_1" fill="url(#_lgradient_4)" fill-rule="evenodd" d="m43,12.55l0,0c0,1.104 0.896,2 2,2l0,0c1.104,0 2,-0.896 2,-2l0,0l0,-6.55c0,-2.76 -2.24,-5 -5,-5l-36,0c-2.76,0 -5,2.24 -5,5l0,19l0,0c0,1.104 0.896,2 2,2l0,0c1.104,0 2,-0.896 2,-2l0,0l0,-17c0,-1.656 1.344,-3 3,-3l32,0c1.656,0 3,1.344 3,3l0,4.55l0,0l0,0zm-38,22.9l0,0c0,-1.104 -0.896,-2 -2,-2l0,0c-1.104,0 -2,0.896 -2,2l0,0l0,6.55c0,2.76 2.24,5 5,5l36,0c2.76,0 5,-2.24 5,-5l0,-19.82l0,0c0,-1.104 -0.896,-2 -2,-2l0,0c-1.104,0 -2,0.896 -2,2l0,0l0,17.82c0,1.656 -1.344,3 -3,3l-32,0c-1.656,0 -3,-1.344 -3,-3l0,-4.55l0,0l0,0z"/>
 </g>
</svg>

<?xml version="1.0" encoding="UTF-8" standalone="no"?><!-- Generator: Gravit.io --><svg xmlns="http://www.w3.org/2000/svg" xmlns:xlink="http://www.w3.org/1999/xlink" style="isolation:isolate" viewBox="0 0 48 48" width="48pt" height="48pt"><linearGradient id="_lgradient_4" x1="-0.008152173913043487" y1="0.059782608695652106" x2="0.9514717198922663" y2="0.9723932281646788" gradientTransform="matrix(46,0,0,46,1,1)" gradientUnits="userSpaceOnUse"><stop offset="0%" stop-opacity="1" style="stop-color:rgb(0,255,255)"/><stop offset="98.26086956521739%" stop-opacity="1" style="stop-color:rgb(165,83,168)"/></linearGradient><path d=" M 43 12.55 L 43 12.55 C 43 13.654 43.896 14.55 45 14.55 L 45 14.55 C 46.104 14.55 47 13.654 47 12.55 L 47 12.55 L 47 6 C 47 3.24 44.76 1 42 1 L 6 1 C 3.24 1 1 3.24 1 6 L 1 25 L 1 25 C 1 26.104 1.896 27 3 27 L 3 27 C 4.104 27 5 26.104 5 25 L 5 25 L 5 8 C 5 6.344 6.344 5 8 5 L 40 5 C 41.656 5 43 6.344 43 8 L 43 12.55 L 43 12.55 L 43 12.55 Z  M 5 35.45 L 5 35.45 C 5 34.346 4.104 33.45 3 33.45 L 3 33.45 C 1.896 33.45 1 34.346 1 35.45 L 1 35.45 L 1 42 C 1 44.76 3.24 47 6 47 L 42 47 C 44.76 47 47 44.76 47 42 L 47 22.18 L 47 22.18 C 47 21.076 46.104 20.18 45 20.18 L 45 20.18 C 43.896 20.18 43 21.076 43 22.18 L 43 22.18 L 43 40 C 43 41.656 41.656 43 40 43 L 8 43 C 6.344 43 5 41.656 5 40 L 5 35.45 L 5 35.45 L 5 35.45 Z  M 22.732 18 L 25.268 18 C 26.224 18 27 18.776 27 19.732 L 27 38.268 C 27 39.224 26.224 40 25.268 40 L 22.732 40 C 21.776 40 21 39.224 21 38.268 L 21 19.732 C 21 18.776 21.776 18 22.732 18 L 22.732 18 Z  M 21.277 8.299 L 21.277 8.299 C 19.774 9.802 19.774 12.242 21.277 13.745 L 21.277 13.745 C 22.78 15.248 25.22 15.248 26.723 13.745 L 26.723 13.745 C 28.226 12.242 28.226 9.802 26.723 8.299 L 26.723 8.299 C 25.22 6.796 22.78 6.796 21.277 8.299 Z " fill-rule="evenodd" fill="url(#_lgradient_4)"/></svg>
